carriers/suedmail.svg

<svg width="128" height="64" viewBox="0 0 128 64" fill="none" xmlns="http://www.w3.org/2000/svg">
<rect width="128" height="64" rx="6" fill="white"/>
<path d="M36.6448 15.5325H92.511V16.6094H36.6448V15.5325Z" fill="#005697"/>
<path d="M35.5613 20.6226H91.4269V21.6995H35.5613V20.6226Z" fill="#005697"/>
<path d="M34.2832 26.5388H90.1488V27.6157H34.2832V26.5388Z" fill="#005697"/>
<path d="M37.4602 11.729H93.3156L65.2221 25.5949L37.4602 11.729Z" fill="#005697"/>
<path d="M37.4475 10.4709H93.3036L65.2113 24.3362L37.4475 10.4709Z" fill="white"/>
<path d="M37.8499 9.61572H93.7161V10.6927H37.8499V9.61572Z" fill="#005697"/>
<path d="M20.0405 51.6735L20.7749 49.2141C21.7367 49.6966 22.6938 50.1316 24.011 50.1316C25.1481 50.1316 26.3374 49.787 26.3374 48.8222C26.3374 46.9141 21.9357 46.7289 21.9357 43.7612C21.9357 40.9831 24.897 39.9924 27.574 39.9924C28.8154 39.9924 30.0804 40.1992 31.2697 40.4748L30.5353 42.7964C29.6492 42.4992 28.7159 42.2451 27.754 42.2451C26.7448 42.2451 25.4798 42.4992 25.4798 43.4425C25.4798 44.9371 29.8814 45.4884 29.8814 48.3829C29.8814 51.4668 26.9201 52.3842 24.011 52.3842C22.6464 52.3842 21.2772 52.199 20.0405 51.6735Z" fill="#005697"/>
<path d="M32.6816 48.5896C32.6816 47.6937 32.9328 46.7504 33.1128 46.0182L34.4774 40.2681H37.865L36.6 45.8545C36.4247 46.6599 36.2209 47.4654 36.2209 48.3398C36.2209 49.3261 36.979 49.9937 38.0688 49.9937C40.4188 49.9937 41.2812 47.9952 41.7123 46.2249L43.1006 40.2681H46.4883L44.0861 50.4072C43.9345 51.1222 43.8113 51.7424 43.7592 52.1086H40.4473L40.6747 50.9585H40.6226C39.6844 51.7424 38.3957 52.3842 36.9317 52.3842C34.3731 52.3842 32.6816 50.937 32.6816 48.5896Z" fill="#005697"/>
<path d="M47.8005 47.4655C47.8005 43.925 49.9232 39.9925 54.3532 39.9925C56.021 39.9925 57.3098 40.5654 58.3711 41.6723L60.0152 34.8669H63.4029L59.892 49.4899C59.6882 50.5021 59.4845 51.51 59.4087 52.1087H56.2484L56.5754 50.3642H56.528C55.514 51.6521 54.249 52.3843 52.278 52.3843C49.1935 52.3843 47.8005 50.0412 47.8005 47.4655ZM51.3398 47.1898C51.3398 48.3829 51.7473 49.9938 53.4151 49.9938C55.8931 49.9938 57.3619 47.3707 57.3619 45.1913C57.3619 43.8087 56.6275 42.383 54.9076 42.383C52.477 42.383 51.3398 45.4196 51.3398 47.1898Z" fill="#005697"/>
<path d="M78.6026 52.1085L80.0429 45.9018C80.2182 45.1911 80.3698 44.4977 80.3698 43.6233C80.3698 42.3398 79.7634 41.3491 78.2235 41.3491C75.5892 41.3491 74.253 44.0411 73.7698 46.156L72.4289 52.1085H70.7611L72.2015 45.9018C72.3768 45.1911 72.5284 44.4977 72.5284 43.6233C72.5284 42.3398 71.9219 41.3491 70.3821 41.3491C67.7525 41.3491 66.4116 44.0411 65.9283 46.156L64.5875 52.1085H62.9197L65.1229 42.3613C65.2745 41.7885 65.3977 41.0045 65.4498 40.3843H67.0418C66.966 41.1208 66.8665 41.7411 66.767 42.1546H66.8143C68.032 40.6815 69.0412 40.1086 70.8132 40.1086C72.6326 40.1086 73.9735 41.0261 74.0493 42.7274H74.1014C74.9353 41.095 76.4278 40.1086 78.4746 40.1086C80.7015 40.1086 82.1182 41.418 82.1182 43.5544C82.1182 44.0153 81.9381 44.9112 81.7391 45.764L80.2703 52.1085H78.6026Z" fill="#005697"/>
<path d="M96.6355 52.1087L99.3646 40.3845H101.037L98.3033 52.1087H96.6355Z" fill="#005697"/>
<path d="M83.6582 49.0978C83.6582 45.6735 87.9035 44.9585 91.0685 44.9585C91.7271 44.9585 92.3051 45.0059 92.8121 45.049C92.8642 44.7044 92.8879 44.3598 92.8879 43.8774C92.8879 42.2709 91.9024 41.3491 90.1304 41.3491C88.6379 41.3491 87.1738 41.9694 86.3115 42.3613L86.4915 40.8882C87.4012 40.5437 88.8653 40.1086 90.3862 40.1086C93.1674 40.1086 94.6315 41.4869 94.6315 43.9248C94.6315 44.3857 94.532 45.2342 94.3046 46.156L93.6223 49.326C93.3712 50.2263 93.1911 51.303 93.139 52.1085H91.547C91.6228 51.4883 91.6749 50.8896 91.8029 50.3856H91.7508C90.661 51.8587 89.2443 52.3842 87.3491 52.3842C85.3497 52.3842 83.6582 51.0274 83.6582 49.0978ZM85.4018 49.0762C85.4018 50.4072 86.6147 51.1437 87.9035 51.1437C90.8884 51.1437 92.2577 48.7058 92.6083 46.2464C92.0777 46.2464 91.5755 46.199 91.0401 46.199C88.8937 46.199 85.4018 46.5005 85.4018 49.0762Z" fill="#005697"/>
<path d="M102.24 52.1087L106.287 34.8669H107.959L103.913 52.1087H102.24Z" fill="#005697"/>
<path d="M42.8362 35.8564C42.8362 35.0442 43.5611 34.3843 44.4561 34.3843C45.3494 34.3843 46.0754 35.0442 46.0754 35.8564C46.0754 36.6695 45.3494 37.329 44.4561 37.329C43.5611 37.329 42.8362 36.6695 42.8362 35.8564Z" fill="#005697"/>
<path d="M37.3938 35.8564C37.3938 35.0442 38.1187 34.3843 39.0132 34.3843C39.9065 34.3843 40.6315 35.0442 40.6315 35.8564C40.6315 36.6695 39.9065 37.329 39.0132 37.329C38.1187 37.329 37.3938 36.6695 37.3938 35.8564Z" fill="#005697"/>
<path d="M99.8569 36.279C99.8569 35.699 100.375 35.228 101.013 35.228C101.653 35.228 102.17 35.699 102.17 36.279C102.17 36.86 101.653 37.3304 101.013 37.3304C100.375 37.3304 99.8569 36.86 99.8569 36.279Z" fill="#005697"/>
</svg>

<svg xmlns="http://www.w3.org/2000/svg" width="128" height="64" fill="none"><rect width="128" height="64" fill="#fff" rx="6"/><path fill="#005697" d="M36.645 15.533H92.51v1.076H36.645v-1.077ZM35.561 20.623h55.866v1.076H35.56v-1.076ZM34.283 26.539H90.15v1.077H34.283v-1.077Z"/><path fill="#005697" d="M37.46 11.729h55.856L65.222 25.595 37.46 11.729Z"/><path fill="#fff" d="M37.447 10.47h55.857L65.21 24.337 37.447 10.471Z"/><path fill="#005697" d="M37.85 9.616h55.866v1.077H37.85V9.616ZM20.04 51.673l.735-2.459c.962.483 1.919.918 3.236.918 1.137 0 2.326-.345 2.326-1.31 0-1.908-4.401-2.093-4.401-5.06 0-2.779 2.961-3.77 5.638-3.77 1.241 0 2.506.207 3.696.483l-.735 2.321c-.886-.297-1.82-.55-2.781-.55-1.01 0-2.274.253-2.274 1.197 0 1.494 4.401 2.045 4.401 4.94 0 3.084-2.96 4.001-5.87 4.001-1.365 0-2.734-.185-3.97-.71ZM32.682 48.59c0-.896.25-1.84.43-2.572l1.365-5.75h3.388L36.6 45.855c-.175.805-.38 1.61-.38 2.485 0 .986.759 1.654 1.849 1.654 2.35 0 3.212-1.999 3.643-3.77l1.389-5.956h3.387l-2.402 10.14a30.604 30.604 0 0 0-.327 1.7h-3.312l.228-1.15h-.052c-.939.784-2.227 1.426-3.691 1.426-2.559 0-4.25-1.447-4.25-3.794ZM47.8 47.465c0-3.54 2.123-7.473 6.553-7.473 1.668 0 2.957.573 4.018 1.68l1.644-6.805h3.388L59.892 49.49c-.204 1.012-.408 2.02-.483 2.619h-3.16l.326-1.745h-.047c-1.014 1.288-2.279 2.02-4.25 2.02-3.084 0-4.477-2.343-4.477-4.919Zm3.54-.275c0 1.193.407 2.804 2.075 2.804 2.478 0 3.947-2.623 3.947-4.803 0-1.382-.735-2.808-2.454-2.808-2.431 0-3.568 3.037-3.568 4.807ZM78.603 52.108l1.44-6.206c.175-.71.327-1.404.327-2.279 0-1.283-.607-2.274-2.147-2.274-2.634 0-3.97 2.692-4.453 4.807l-1.341 5.953H70.76l1.44-6.207c.176-.71.327-1.404.327-2.279 0-1.283-.606-2.274-2.146-2.274-2.63 0-3.97 2.692-4.454 4.807l-1.34 5.953H62.92l2.203-9.748c.151-.572.275-1.356.327-1.977h1.592a14.42 14.42 0 0 1-.275 1.77h.047c1.218-1.473 2.227-2.045 4-2.045 1.819 0 3.16.917 3.235 2.618h.052c.834-1.632 2.327-2.618 4.374-2.618 2.227 0 3.643 1.309 3.643 3.445 0 .461-.18 1.357-.379 2.21l-1.469 6.344h-1.667ZM96.635 52.109l2.73-11.724h1.672l-2.734 11.724h-1.668ZM83.658 49.098c0-3.425 4.245-4.14 7.41-4.14.66 0 1.237.048 1.744.091.052-.345.076-.69.076-1.172 0-1.606-.986-2.528-2.758-2.528-1.492 0-2.956.62-3.819 1.012l.18-1.473c.91-.344 2.374-.78 3.895-.78 2.781 0 4.246 1.379 4.246 3.817 0 .46-.1 1.31-.327 2.231l-.683 3.17a14.8 14.8 0 0 0-.483 2.782h-1.592c.076-.62.128-1.218.256-1.722h-.052c-1.09 1.473-2.507 1.998-4.402 1.998-2 0-3.69-1.357-3.69-3.286Zm1.744-.022c0 1.331 1.213 2.068 2.501 2.068 2.985 0 4.355-2.438 4.705-4.898-.53 0-1.032-.047-1.568-.047-2.146 0-5.638.302-5.638 2.877ZM102.24 52.109l4.047-17.242h1.672l-4.046 17.242h-1.673ZM42.836 35.856c0-.812.725-1.472 1.62-1.472.893 0 1.62.66 1.62 1.472 0 .813-.727 1.473-1.62 1.473-.895 0-1.62-.66-1.62-1.473ZM37.394 35.856c0-.812.725-1.472 1.62-1.472.892 0 1.617.66 1.617 1.472 0 .813-.724 1.473-1.618 1.473-.894 0-1.62-.66-1.62-1.473ZM99.857 36.279c0-.58.518-1.051 1.156-1.051.64 0 1.157.471 1.157 1.051 0 .581-.517 1.051-1.157 1.051-.638 0-1.156-.47-1.156-1.051Z"/></svg>
